images/icons/pix.svg

<svg width="24" height="23" viewBox="0 0 24 23" fill="none" xmlns="http://www.w3.org/2000/svg">
<path d="M9.55286 21.7742L5.10242 17.4453H5.79504C6.71399 17.4453 7.57874 17.097 8.22864 16.4653L11.7552 13.0347C12.0018 12.7949 12.432 12.7941 12.6786 13.0347L16.1925 16.4526C16.8424 17.0847 17.7069 17.4328 18.6261 17.4328H19.0494L14.5861 21.7742C13.8912 22.4501 12.9803 22.788 12.0695 22.788C11.1586 22.788 10.2477 22.4501 9.55286 21.7742ZM1.39807 13.8421C0.00793457 12.4899 0.00793457 10.2979 1.39807 8.94615L4.10583 6.31224C4.16272 6.33306 4.22278 6.34787 4.28699 6.34787H5.79504C6.42883 6.34787 7.04944 6.59786 7.49744 7.0339L11.0245 10.4646C11.3534 10.7841 11.785 10.9443 12.2169 10.9443C12.6488 10.9443 13.0807 10.7841 13.4095 10.4643L16.9237 7.04624C17.3715 6.61036 17.9921 6.36022 18.6261 6.36022H19.8522C19.92 6.36022 19.9845 6.34571 20.0438 6.32258L22.7408 8.94615C24.131 10.2979 24.131 12.4899 22.7408 13.8421L20.0441 16.4654C19.9845 16.4422 19.92 16.4278 19.8522 16.4278H18.6261C17.9921 16.4278 17.3715 16.1778 16.9237 15.7416L13.4095 12.3241C12.7726 11.7039 11.6617 11.7042 11.0243 12.3237L7.49744 15.7543C7.04944 16.1902 6.42883 16.4403 5.79504 16.4403H4.28699C4.22278 16.4403 4.16248 16.4551 4.10583 16.4759L1.39807 13.8421ZM11.7552 9.75387L8.22864 6.32286C7.57874 5.69101 6.71399 5.34276 5.79504 5.34276H5.10266L9.55286 1.01396C10.9427 -0.337987 13.1964 -0.337987 14.5861 1.01396L19.0494 5.35525H18.6261C17.7069 5.35525 16.8424 5.70336 16.1925 6.33538L12.6786 9.75357C12.5514 9.87774 12.3844 9.9396 12.2172 9.93959C12.0497 9.93959 11.8824 9.87753 11.7552 9.75387Z" fill="#303030"/>
</svg>

<svg version="1.2" xmlns="http://www.w3.org/2000/svg" viewBox="0 0 24 23" width="24" height="23"><style>.a{fill:#f2f2f2}</style><path class="a" d="m9.6 21.8l-4.5-4.4h0.7c0.9 0 1.8-0.3 2.4-0.9l3.6-3.5c0.2-0.2 0.6-0.2 0.9 0l3.5 3.5c0.6 0.6 1.5 0.9 2.4 0.9h0.4l-4.4 4.4c-0.7 0.7-1.6 1-2.5 1-0.9 0-1.9-0.3-2.5-1zm-8.2-8c-1.4-1.3-1.4-3.5 0-4.9l2.7-2.6q0.1 0 0.2 0h1.5c0.6 0 1.2 0.3 1.7 0.7l3.5 3.5c0.4 0.3 0.8 0.4 1.2 0.4 0.4 0 0.9-0.1 1.2-0.4l3.5-3.5c0.5-0.4 1.1-0.6 1.7-0.6h1.3q0.1 0 0.1-0.1l2.7 2.6c1.4 1.4 1.4 3.6 0 4.9l-2.7 2.7q0-0.1-0.1-0.1h-1.3c-0.6 0-1.2-0.2-1.7-0.7l-3.5-3.4c-0.6-0.6-1.7-0.6-2.4 0l-3.5 3.5c-0.5 0.4-1.1 0.6-1.7 0.6h-1.5q-0.1 0-0.2 0.1zm10.4-4.1l-3.6-3.4c-0.6-0.7-1.5-1-2.4-1h-0.7l4.5-4.4c1.4-1.3 3.6-1.3 5 0l4.5 4.4h-0.5c-0.9 0-1.7 0.3-2.4 1l-3.5 3.4q-0.2 0.2-0.5 0.2-0.2 0-0.4-0.2z"/></svg>
